assets/img/uncheck.svg

<svg width="70" height="25" viewBox="0 0 70 25" fill="none" xmlns="http://www.w3.org/2000/svg">
<rect x="1.0119" y="4.0119" width="19.5635" height="19.5635" rx="3.71032" stroke="#B8B4C8" stroke-width="2.02381"/>
<path d="M30.362 17.1498C29.4473 17.1498 28.6493 16.9445 27.968 16.5338C27.296 16.1138 26.7733 15.5258 26.4 14.7698C26.036 14.0138 25.854 13.1178 25.854 12.0818C25.854 11.2978 25.9567 10.5978 26.162 9.9818C26.3767 9.35647 26.68 8.82914 27.072 8.3998C27.464 7.96114 27.9353 7.62514 28.486 7.3918C29.046 7.14914 29.6713 7.0278 30.362 7.0278C31.2953 7.0278 32.098 7.23314 32.77 7.6438C33.4513 8.05447 33.974 8.6378 34.338 9.3938C34.7113 10.1405 34.898 11.0318 34.898 12.0678C34.898 12.8518 34.7907 13.5565 34.576 14.1818C34.3613 14.8071 34.058 15.3391 33.666 15.7778C33.274 16.2165 32.798 16.5571 32.238 16.7998C31.6873 17.0331 31.062 17.1498 30.362 17.1498ZM30.362 16.1278C31.0713 16.1278 31.6687 15.9691 32.154 15.6518C32.6487 15.3345 33.0267 14.8725 33.288 14.2658C33.5493 13.6591 33.68 12.9311 33.68 12.0818C33.68 10.8031 33.3907 9.8138 32.812 9.1138C32.2427 8.40447 31.426 8.0498 30.362 8.0498C29.6713 8.0498 29.0787 8.20847 28.584 8.5258C28.0987 8.84314 27.7253 9.30514 27.464 9.9118C27.2027 10.5091 27.072 11.2325 27.072 12.0818C27.072 13.3511 27.3613 14.3451 27.94 15.0638C28.5187 15.7731 29.326 16.1278 30.362 16.1278ZM37.3564 19.6418C37.1698 19.6418 37.0298 19.5905 36.9364 19.4878C36.8431 19.3945 36.7964 19.2545 36.7964 19.0678V10.6958C36.7964 10.5091 36.8431 10.3691 36.9364 10.2758C37.0298 10.1731 37.1651 10.1218 37.3424 10.1218C37.5291 10.1218 37.6691 10.1731 37.7624 10.2758C37.8651 10.3691 37.9164 10.5091 37.9164 10.6958V12.0258L37.7624 11.8298C37.9118 11.2978 38.2058 10.8778 38.6444 10.5698C39.0924 10.2525 39.6244 10.0938 40.2404 10.0938C40.8471 10.0938 41.3744 10.2385 41.8224 10.5278C42.2798 10.8078 42.6298 11.2138 42.8724 11.7458C43.1244 12.2685 43.2504 12.8938 43.2504 13.6218C43.2504 14.3405 43.1244 14.9658 42.8724 15.4978C42.6298 16.0205 42.2844 16.4265 41.8364 16.7158C41.3884 17.0051 40.8564 17.1498 40.2404 17.1498C39.6244 17.1498 39.0971 16.9958 38.6584 16.6878C38.2198 16.3705 37.9211 15.9505 37.7624 15.4278H37.9304V19.0678C37.9304 19.2545 37.8791 19.3945 37.7764 19.4878C37.6738 19.5905 37.5338 19.6418 37.3564 19.6418ZM40.0024 16.2398C40.4318 16.2398 40.8004 16.1371 41.1084 15.9318C41.4258 15.7265 41.6684 15.4278 41.8364 15.0358C42.0138 14.6438 42.1024 14.1725 42.1024 13.6218C42.1024 12.7725 41.9111 12.1238 41.5284 11.6758C41.1551 11.2278 40.6464 11.0038 40.0024 11.0038C39.5824 11.0038 39.2138 11.1065 38.8964 11.3118C38.5791 11.5078 38.3318 11.8018 38.1544 12.1938C37.9864 12.5765 37.9024 13.0525 37.9024 13.6218C37.9024 14.4618 38.0938 15.1105 38.4764 15.5678C38.8591 16.0158 39.3678 16.2398 40.0024 16.2398ZM47.6202 17.1498C47.0882 17.1498 46.6402 17.0565 46.2762 16.8698C45.9215 16.6738 45.6555 16.3938 45.4782 16.0298C45.3008 15.6565 45.2122 15.2038 45.2122 14.6718V11.1018H44.2742C44.1155 11.1018 43.9942 11.0645 43.9102 10.9898C43.8262 10.9058 43.7842 10.7938 43.7842 10.6538C43.7842 10.5138 43.8262 10.4065 43.9102 10.3318C43.9942 10.2571 44.1155 10.2198 44.2742 10.2198H45.2122V8.6098C45.2122 8.42314 45.2635 8.28314 45.3662 8.1898C45.4688 8.08714 45.6088 8.0358 45.7862 8.0358C45.9635 8.0358 46.0988 8.08714 46.1922 8.1898C46.2948 8.28314 46.3462 8.42314 46.3462 8.6098V10.2198H48.1102C48.2688 10.2198 48.3902 10.2571 48.4742 10.3318C48.5582 10.4065 48.6002 10.5138 48.6002 10.6538C48.6002 10.7938 48.5582 10.9058 48.4742 10.9898C48.3902 11.0645 48.2688 11.1018 48.1102 11.1018H46.3462V14.5598C46.3462 15.0918 46.4582 15.4978 46.6822 15.7778C46.9062 16.0485 47.2702 16.1838 47.7742 16.1838C47.9515 16.1838 48.1008 16.1651 48.2222 16.1278C48.3528 16.0905 48.4602 16.0718 48.5442 16.0718C48.6282 16.0625 48.6982 16.0905 48.7542 16.1558C48.8102 16.2211 48.8382 16.3331 48.8382 16.4918C48.8382 16.6038 48.8148 16.7065 48.7682 16.7998C48.7308 16.8931 48.6608 16.9585 48.5582 16.9958C48.4462 17.0331 48.2968 17.0658 48.1102 17.0938C47.9328 17.1311 47.7695 17.1498 47.6202 17.1498ZM50.4267 17.0938C50.2401 17.0938 50.1001 17.0425 50.0067 16.9398C49.9134 16.8278 49.8667 16.6738 49.8667 16.4778V10.7518C49.8667 10.5558 49.9134 10.4065 50.0067 10.3038C50.1001 10.2011 50.2401 10.1498 50.4267 10.1498C50.6041 10.1498 50.7441 10.2011 50.8467 10.3038C50.9494 10.4065 51.0007 10.5558 51.0007 10.7518V16.4778C51.0007 16.6738 50.9494 16.8278 50.8467 16.9398C50.7534 17.0425 50.6134 17.0938 50.4267 17.0938ZM50.4267 8.5818C50.1934 8.5818 50.0114 8.52114 49.8807 8.3998C49.7501 8.26914 49.6847 8.09647 49.6847 7.8818C49.6847 7.6578 49.7501 7.4898 49.8807 7.3778C50.0114 7.25647 50.1934 7.1958 50.4267 7.1958C50.6694 7.1958 50.8514 7.25647 50.9727 7.3778C51.1034 7.4898 51.1687 7.6578 51.1687 7.8818C51.1687 8.09647 51.1034 8.26914 50.9727 8.3998C50.8514 8.52114 50.6694 8.5818 50.4267 8.5818ZM55.9486 17.1498C55.286 17.1498 54.712 17.0051 54.2266 16.7158C53.7413 16.4265 53.3633 16.0205 53.0926 15.4978C52.8313 14.9658 52.7006 14.3405 52.7006 13.6218C52.7006 13.0805 52.7753 12.5951 52.9246 12.1658C53.074 11.7271 53.2933 11.3538 53.5826 11.0458C53.872 10.7378 54.2126 10.5045 54.6046 10.3458C55.006 10.1778 55.454 10.0938 55.9486 10.0938C56.6113 10.0938 57.1853 10.2385 57.6706 10.5278C58.156 10.8171 58.5293 11.2278 58.7906 11.7598C59.0613 12.2825 59.1966 12.9031 59.1966 13.6218C59.1966 14.1631 59.122 14.6485 58.9726 15.0778C58.8233 15.5071 58.604 15.8805 58.3146 16.1978C58.0253 16.5058 57.68 16.7438 57.2786 16.9118C56.8866 17.0705 56.4433 17.1498 55.9486 17.1498ZM55.9486 16.2398C56.3686 16.2398 56.7373 16.1371 57.0546 15.9318C57.372 15.7265 57.6146 15.4278 57.7826 15.0358C57.96 14.6438 58.0486 14.1725 58.0486 13.6218C58.0486 12.7725 57.8573 12.1238 57.4746 11.6758C57.1013 11.2278 56.5926 11.0038 55.9486 11.0038C55.5193 11.0038 55.146 11.1065 54.8286 11.3118C54.5206 11.5078 54.278 11.8018 54.1006 12.1938C53.9326 12.5765 53.8486 13.0525 53.8486 13.6218C53.8486 14.4618 54.04 15.1105 54.4226 15.5678C54.8053 16.0158 55.314 16.2398 55.9486 16.2398ZM61.4599 17.1218C61.2733 17.1218 61.1333 17.0705 61.0399 16.9678C60.9466 16.8651 60.8999 16.7205 60.8999 16.5338V10.6958C60.8999 10.5091 60.9466 10.3691 61.0399 10.2758C61.1333 10.1731 61.2686 10.1218 61.4459 10.1218C61.6233 10.1218 61.7586 10.1731 61.8519 10.2758C61.9546 10.3691 62.0059 10.5091 62.0059 10.6958V11.8998L61.8519 11.7318C62.0479 11.1905 62.3653 10.7845 62.8039 10.5138C63.2519 10.2338 63.7653 10.0938 64.3439 10.0938C64.8853 10.0938 65.3333 10.1918 65.6879 10.3878C66.0519 10.5838 66.3226 10.8825 66.4999 11.2838C66.6773 11.6758 66.7659 12.1751 66.7659 12.7818V16.5338C66.7659 16.7205 66.7146 16.8651 66.6119 16.9678C66.5186 17.0705 66.3833 17.1218 66.2059 17.1218C66.0193 17.1218 65.8746 17.0705 65.7719 16.9678C65.6786 16.8651 65.6319 16.7205 65.6319 16.5338V12.8518C65.6319 12.2171 65.5059 11.7551 65.2539 11.4658C65.0113 11.1671 64.6193 11.0178 64.0779 11.0178C63.4526 11.0178 62.9533 11.2138 62.5799 11.6058C62.2159 11.9885 62.0339 12.5018 62.0339 13.1458V16.5338C62.0339 16.9258 61.8426 17.1218 61.4599 17.1218Z" fill="#7B778D"/>
</svg>

<svg xmlns="http://www.w3.org/2000/svg" width="70" height="25" fill="none"><rect width="19.564" height="19.564" x="1.012" y="4.012" stroke="#B8B4C8" stroke-width="2.024" rx="3.71"/><path fill="#7B778D" d="M30.362 17.15q-1.372 0-2.394-.616-1.008-.63-1.568-1.764-.546-1.134-.546-2.688 0-1.176.308-2.1.322-.939.91-1.582a3.9 3.9 0 0 1 1.414-1.008q.84-.364 1.876-.364 1.4 0 2.408.616 1.022.615 1.568 1.75.56 1.12.56 2.674 0 1.176-.322 2.114a4.6 4.6 0 0 1-.91 1.596q-.588.658-1.428 1.022-.825.35-1.876.35m0-1.022q1.065 0 1.792-.476.742-.476 1.134-1.386t.392-2.184q0-1.918-.868-2.968-.854-1.064-2.45-1.064-1.035 0-1.778.476-.728.476-1.12 1.386-.392.895-.392 2.17 0 1.904.868 2.982.868 1.065 2.422 1.064m6.994 3.514q-.279 0-.42-.154-.14-.14-.14-.42v-8.372q0-.28.14-.42.142-.154.406-.154.28 0 .42.154.154.14.154.42v1.33l-.154-.196q.225-.798.882-1.26.672-.476 1.596-.476.91 0 1.582.434.687.42 1.05 1.218.378.784.378 1.876 0 1.078-.378 1.876a2.83 2.83 0 0 1-1.036 1.218q-.672.434-1.596.434t-1.582-.462a2.36 2.36 0 0 1-.896-1.26h.168v3.64q.001.279-.154.42a.57.57 0 0 1-.42.154m2.646-3.402q.645 0 1.106-.308.477-.309.728-.896.267-.588.266-1.414.001-1.274-.574-1.946-.56-.672-1.526-.672-.63 0-1.106.308-.475.294-.742.882-.252.573-.252 1.428 0 1.26.574 1.946.575.672 1.526.672m7.618.91q-.798 0-1.344-.28a1.88 1.88 0 0 1-.798-.84q-.266-.56-.266-1.358v-3.57h-.938q-.238 0-.364-.112a.45.45 0 0 1-.126-.336q0-.21.126-.322.127-.112.364-.112h.938V8.61q0-.28.154-.42a.57.57 0 0 1 .42-.154q.267 0 .406.154.154.14.154.42v1.61h1.764q.238 0 .364.112.126.111.126.322 0 .21-.126.336-.126.112-.364.112h-1.764v3.458q0 .798.336 1.218.336.406 1.092.406.267 0 .448-.056.196-.056.322-.056a.23.23 0 0 1 .21.084q.084.098.084.336a.7.7 0 0 1-.07.308.34.34 0 0 1-.21.196q-.168.056-.448.098-.265.056-.49.056m2.807-.056q-.28 0-.42-.154-.14-.168-.14-.462v-5.726q0-.294.14-.448t.42-.154q.266 0 .42.154t.154.448v5.726q0 .294-.154.462-.141.154-.42.154m0-8.512q-.351 0-.546-.182a.7.7 0 0 1-.196-.518q0-.336.196-.504.195-.183.546-.182.363 0 .546.182.196.168.196.504a.7.7 0 0 1-.196.518q-.183.182-.546.182m5.522 8.568q-.994 0-1.722-.434a3 3 0 0 1-1.134-1.218q-.393-.798-.392-1.876 0-.812.224-1.456.223-.658.658-1.12.434-.462 1.022-.7a3.5 3.5 0 0 1 1.344-.252q.993 0 1.722.434.727.434 1.12 1.232.406.784.406 1.862 0 .812-.224 1.456a3.2 3.2 0 0 1-.658 1.12q-.435.462-1.036.714a3.5 3.5 0 0 1-1.33.238m0-.91q.63 0 1.106-.308.476-.309.728-.896.266-.588.266-1.414 0-1.274-.574-1.946-.56-.672-1.526-.672-.645 0-1.12.308-.462.294-.728.882-.252.573-.252 1.428 0 1.26.574 1.946.573.672 1.526.672m5.51.882q-.279 0-.42-.154-.139-.154-.14-.434v-5.838q.001-.28.14-.42.141-.154.407-.154t.406.154q.154.14.154.42V11.9l-.154-.168q.294-.811.952-1.218.672-.42 1.54-.42.812 0 1.344.294.546.294.812.896.266.588.266 1.498v3.752q0 .28-.154.434-.14.154-.406.154-.28 0-.434-.154-.14-.154-.14-.434v-3.682q0-.953-.378-1.386-.364-.448-1.176-.448-.938 0-1.498.588-.546.574-.546 1.54v3.388q0 .588-.574.588"/></svg>
